packages/core/src/svgs/tokens/branded/SHIB.svg

<svg width="24" height="24" viewBox="0 0 24 24" fill="none" xmlns="http://www.w3.org/2000/svg">
<path d="M3.38477 15.1072C3.38477 13.2696 4.29449 11.0845 4.74905 10.2213C4.0548 8.03916 2.9271 3.47312 3.96847 2.66646C5.00986 1.85919 7.5242 4.54057 8.65065 5.98187C9.11083 5.73845 10.4155 5.25222 11.9542 5.25222C13.493 5.25222 14.9394 5.73845 15.4708 5.98187C18.5012 2.59008 19.7693 2.35845 20.0239 2.66646C21.0951 4.01957 19.9785 8.26645 19.2862 10.2213C19.7332 10.9373 20.6251 12.9175 20.6251 15.1078C20.6251 17.845 16.6912 21.769 11.9374 21.769C7.18391 21.769 3.38477 17.4048 3.38477 15.1072Z" fill="#EB9A2E"/>
<path fill-rule="evenodd" clip-rule="evenodd" d="M5.02086 9.08114C4.61413 7.70691 3.9236 4.76844 4.41107 4.00961C4.89854 3.25077 6.85338 5.15034 7.76994 6.19545C7.2421 6.61648 5.95233 7.78391 5.02086 9.08114ZM19.0786 9.08114C19.4847 7.70691 20.1759 4.76844 19.6883 4.00961C19.2003 3.25077 17.2461 5.15034 16.3295 6.19545C16.8574 6.61648 18.1471 7.78391 19.0786 9.08114Z" fill="#E58014"/>
<path d="M8.8775 10.9788C8.42227 11.0613 7.9591 11.091 7.49707 11.0676C7.4116 11.0655 7.3299 11.032 7.26744 10.9736C7.20496 10.9154 7.16603 10.8361 7.15802 10.7509C7.11455 10.1884 7.32754 9.43757 7.96528 9.46742C8.73033 9.50335 9.06441 10.0697 9.18172 10.5354C9.23388 10.7448 9.08739 10.941 8.8775 10.9788ZM15.1556 10.9788C15.6995 11.0782 16.2019 11.0863 16.536 11.0676C16.6215 11.0655 16.7032 11.032 16.7657 10.9736C16.8281 10.9154 16.8671 10.8361 16.8751 10.7509C16.9185 10.1884 16.7055 9.43757 16.0679 9.46742C15.3028 9.50335 14.9687 10.0697 14.8513 10.5354C14.7992 10.7448 14.9456 10.941 15.1556 10.9788Z" fill="#FEFFF7"/>
<path d="M11.4723 21.656C4.93164 20.6593 3.35621 16.8669 3.38541 15.0953C6.76539 14.8456 7.92413 16.1535 8.08061 16.8384C8.17066 15.7951 9.04996 13.7075 11.8456 13.7075C14.6412 13.7075 15.5206 15.7946 15.6105 16.8384C17.3406 14.7203 19.7487 14.9426 20.7368 15.3183C19.1371 20.6369 13.8943 21.7597 11.4723 21.656Z" fill="#EAEAE8"/>
<path fill-rule="evenodd" clip-rule="evenodd" d="M12.8633 14.7122H11.049C10.9272 14.7132 10.811 14.7624 10.7257 14.849C10.6403 14.9356 10.5928 15.0526 10.5937 15.1743V16.0697C10.6204 16.3597 10.8887 16.9142 11.7301 17.0074V17.8966C11.6743 17.9484 11.6306 18.0122 11.6022 18.0829H10.5173V18.0946C10.4029 17.9887 10.2764 17.8967 10.1405 17.8202C10.1273 17.8131 10.1128 17.8086 10.0979 17.807C10.0831 17.8056 10.068 17.807 10.0537 17.8114C10.0393 17.8156 10.026 17.8228 10.0144 17.8322C10.003 17.8418 9.99339 17.8535 9.98643 17.8667C9.97195 17.8937 9.96847 17.925 9.97702 17.9544C9.98542 17.9837 10.0051 18.0084 10.0318 18.0232C10.1044 18.0636 10.2168 18.1351 10.3124 18.2182C10.3608 18.2598 10.4024 18.3021 10.4329 18.3424C10.4639 18.3834 10.4782 18.4152 10.4813 18.4356C10.4856 18.4592 10.4956 18.4791 10.5105 18.4953V18.992C10.5105 19.0553 10.5614 19.1075 10.6241 19.1075C10.6545 19.1072 10.6835 19.0949 10.7048 19.0733C10.7261 19.0515 10.738 19.0224 10.7377 18.992V18.3133H13.177V18.992C13.177 19.0553 13.2279 19.1075 13.2906 19.1075C13.3057 19.1075 13.3206 19.1044 13.3345 19.0985C13.3484 19.0927 13.361 19.0841 13.3716 19.0734C13.3823 19.0627 13.3907 19.0499 13.3964 19.036C13.402 19.0221 13.4049 19.0071 13.4049 18.992V18.4375C13.4065 18.4308 13.4076 18.4239 13.408 18.417L13.4099 18.4127C13.418 18.3986 13.4275 18.3856 13.4384 18.3736C13.4675 18.3394 13.511 18.2989 13.5645 18.2568C13.6701 18.1717 13.7973 18.0873 13.8831 18.0363C13.9092 18.0205 13.928 17.995 13.9355 17.9654C13.9431 17.9358 13.9387 17.9044 13.9234 17.878C13.916 17.865 13.906 17.8535 13.8941 17.8444C13.8822 17.8353 13.8686 17.8286 13.8541 17.8249C13.8395 17.8209 13.8244 17.8201 13.8096 17.8222C13.7947 17.8243 13.7804 17.8293 13.7675 17.837C13.6474 17.909 13.532 17.9889 13.4223 18.0761L13.4142 18.0823H12.2753C12.2522 18.0386 12.2217 17.999 12.1852 17.9655V17.0123C13.0589 16.9353 13.3067 16.3646 13.3186 16.0697V15.1743C13.3195 15.0526 13.2719 14.9356 13.1866 14.849C13.1012 14.7624 12.985 14.7132 12.8633 14.7122ZM11.1954 18.6448L11.4364 18.9398L11.6201 18.7654L11.9537 19.0882L12.2982 18.7654L12.4591 18.9398L12.6815 18.6448H11.1954Z" fill="#000001"/>
<path d="M7.00676 11.742C6.67206 11.6104 6.66832 11.9185 6.70869 12.0886V12.3456C6.70886 12.5785 6.77931 12.8058 6.91083 12.9979C7.04235 13.1901 7.2288 13.338 7.4458 13.4225C8.46047 13.8037 10.175 14.3316 9.98746 13.7789C9.73911 13.0504 7.42529 11.9066 7.00676 11.742ZM16.9343 11.742C17.2684 11.6104 17.2728 11.9185 17.2324 12.0886V12.3456C17.2322 12.5785 17.1618 12.8058 17.0302 12.9979C16.8988 13.1901 16.7123 13.338 16.4953 13.4225C15.4806 13.8037 13.7654 14.3316 13.9537 13.7789C14.2014 13.0504 16.5158 11.9066 16.9343 11.742Z" fill="black"/>
<path fill-rule="evenodd" clip-rule="evenodd" d="M8.64545 5.45095C7.66121 4.23259 6.4416 2.86705 4.93636 2.26906C1.42099 0.871848 3.91173 8.91601 4.27998 10.076C3.79809 11.0117 2.88525 13.2026 2.88525 15.0532C2.88525 19.0596 8.67278 22 12.005 22C15.4855 22 21.1147 19.156 21.1147 15.0532C21.1147 12.8816 20.2888 10.9658 19.8038 10.1486C20.5509 8.01994 21.9313 4.14379 20.4396 2.23056C19.4349 1.02896 15.8737 4.89208 15.4408 5.36774C14.7895 5.10133 13.4308 4.78278 11.9529 4.78278C10.5016 4.78278 9.24042 5.1802 8.64545 5.45095ZM3.96017 2.6938C3.87696 2.75715 3.79934 2.87079 3.73911 3.05336C3.6795 3.23468 3.64223 3.46692 3.62733 3.74512C3.59814 4.30214 3.66149 5.00385 3.78257 5.76082C4.02227 7.2729 4.48242 8.96133 4.83327 10.0543L4.86432 10.1486L4.81712 10.2355C4.36071 11.0951 3.45594 13.2573 3.45594 15.0532C3.45594 15.5735 3.67577 16.2404 4.10362 16.9601C4.52836 17.6755 5.14686 18.4244 5.91688 19.1056C7.45814 20.468 9.65265 21.379 12.005 21.379C14.3646 21.379 16.4574 20.5731 18.0298 19.2671C19.612 17.9531 20.554 16.333 20.554 15.0532C20.554 12.9002 19.6642 10.946 19.2263 10.2505L19.166 10.1543L19.2046 10.0475C19.5536 9.07125 20.0093 7.52253 20.2423 6.05329C20.3589 5.31868 20.4186 4.61263 20.3839 4.0109C20.3491 3.40731 20.2217 2.94469 19.997 2.66027C19.9913 2.65593 19.9467 2.62612 19.8038 2.64785C19.6387 2.67331 19.3852 2.7646 19.0276 2.98069C18.3148 3.41103 17.2379 4.30525 15.701 6.00797L15.5904 6.13093L15.4402 6.06261C14.9218 5.82726 13.4803 5.34725 11.9529 5.34725C10.7817 5.34725 9.57078 5.59812 8.52871 6.14397C7.7792 5.19449 6.96509 4.28102 6.0299 3.50978C5.61819 3.1701 4.55197 2.23925 3.96017 2.6938Z" fill="black"/>
</svg>

<svg xmlns="http://www.w3.org/2000/svg" width="24" height="24" fill="none" viewBox="0 0 24 24">
    <path fill="#EB9A2E" d="M3.385 15.107c0-1.837.91-4.022 1.364-4.886-.694-2.182-1.822-6.748-.78-7.555 1.04-.807 3.555 1.875 4.682 3.316.46-.244 1.765-.73 3.303-.73s2.985.486 3.517.73c3.03-3.392 4.298-3.624 4.553-3.316 1.071 1.354-.046 5.6-.738 7.555.447.716 1.34 2.697 1.34 4.887 0 2.737-3.935 6.661-8.689 6.661s-8.552-4.364-8.552-6.662"/>
    <path fill="#E58014" fill-rule="evenodd" d="M5.02 9.081c-.406-1.374-1.096-4.313-.609-5.071.488-.76 2.442 1.14 3.359 2.185-.528.421-1.818 1.589-2.75 2.886m14.059 0c.406-1.374 1.097-4.313.61-5.071-.489-.76-2.443 1.14-3.36 2.185.528.421 1.818 1.589 2.75 2.886" clip-rule="evenodd"/>
    <path fill="#FEFFF7" d="M8.878 10.979a6 6 0 0 1-1.38.089.35.35 0 0 1-.34-.317c-.043-.563.17-1.313.807-1.284.765.036 1.1.603 1.217 1.068.052.21-.095.406-.305.444m6.278 0c.543.1 1.046.107 1.38.089a.35.35 0 0 0 .34-.317c.043-.563-.17-1.313-.808-1.284-.765.036-1.1.603-1.217 1.068-.052.21.095.406.305.444"/>
    <path fill="#EAEAE8" d="M11.472 21.656c-6.54-.997-8.116-4.79-8.087-6.56 3.38-.25 4.54 1.058 4.696 1.742.09-1.043.969-3.13 3.765-3.13 2.795 0 3.675 2.087 3.765 3.13a4.64 4.64 0 0 1 5.126-1.52c-1.6 5.319-6.843 6.442-9.265 6.338"/>
    <path fill="#000001" fill-rule="evenodd" d="M12.863 14.712H11.05a.46.46 0 0 0-.455.462v.896c.026.29.295.844 1.136.937v.89a.5.5 0 0 0-.128.186h-1.085v.012a2 2 0 0 0-.377-.275.114.114 0 0 0-.154.047.116.116 0 0 0 .046.156c.072.04.185.112.28.195q.074.064.12.124a.2.2 0 0 1 .05.094.1.1 0 0 0 .029.06v.496c0 .063.05.116.113.116a.115.115 0 0 0 .114-.116v-.679h2.439v.679c0 .063.05.116.114.116a.1.1 0 0 0 .08-.035.11.11 0 0 0 .034-.081v-.555l.003-.02.002-.004a.2.2 0 0 1 .028-.04 1 1 0 0 1 .127-.116c.105-.085.232-.17.318-.22a.116.116 0 0 0 .04-.159.11.11 0 0 0-.155-.041q-.18.108-.346.24l-.008.005h-1.139a.4.4 0 0 0-.09-.117v-.953c.874-.077 1.122-.647 1.134-.942v-.896a.46.46 0 0 0-.456-.462m-1.668 3.933.241.295.184-.175.334.323.344-.323.161.175.223-.295z" clip-rule="evenodd"/>
    <path fill="#000" d="M7.007 11.742c-.335-.132-.339.176-.298.347v.257a1.16 1.16 0 0 0 .737 1.076c1.014.382 2.729.91 2.541.357-.248-.729-2.562-1.872-2.98-2.037m9.927 0c.334-.132.339.176.298.347v.257a1.16 1.16 0 0 1-.737 1.076c-1.014.382-2.73.91-2.541.357.247-.729 2.562-1.872 2.98-2.037"/>
    <path fill="#000" fill-rule="evenodd" d="M8.645 5.45c-.984-1.217-2.203-2.583-3.709-3.18C1.421.871 3.912 8.915 4.28 10.075c-.482.936-1.395 3.127-1.395 4.977 0 4.007 5.788 6.947 9.12 6.947 3.48 0 9.11-2.844 9.11-6.947 0-2.171-.826-4.087-1.311-4.904.747-2.13 2.127-6.005.636-7.918-1.005-1.202-4.566 2.661-5 3.137-.65-.267-2.01-.585-3.487-.585-1.451 0-2.713.397-3.308.668M3.96 2.695c-.083.063-.16.177-.22.36q-.09.272-.113.691c-.029.557.034 1.259.156 2.016.24 1.512.7 3.2 1.05 4.293l.031.095-.047.087c-.456.86-1.361 3.021-1.361 4.817 0 .52.22 1.187.648 1.907.424.715 1.043 1.464 1.813 2.146 1.541 1.362 3.736 2.273 6.088 2.273 2.36 0 4.452-.806 6.025-2.112 1.582-1.314 2.524-2.934 2.524-4.214 0-2.153-.89-4.107-1.328-4.802l-.06-.097.039-.107c.349-.976.804-2.524 1.037-3.994.117-.734.177-1.44.142-2.042-.035-.604-.162-1.066-.387-1.35-.006-.005-.05-.035-.193-.013-.165.025-.419.117-.776.333-.713.43-1.79 1.324-3.327 3.027l-.11.123-.15-.068c-.52-.236-1.96-.716-3.488-.716-1.171 0-2.382.251-3.424.797-.75-.95-1.564-1.863-2.5-2.634-.41-.34-1.477-1.27-2.069-.816" clip-rule="evenodd"/>
</svg>
